modules/entypo/icons/cc-by.svg

<svg height="1000px" width="960px" xmlns="http://www.w3.org/2000/svg">
  <g>
    <path d="M480 324c-44 0 -66 -22.667 -66 -68c0 -45.333 22 -68 66 -68c45.333 0 68 22.667 68 68c0 45.333 -22.667 68 -68 68c0 0 0 0 0 0m98 26c9.333 0 16.667 2.667 22 8c6.667 6.667 10 14 10 22c0 0 0 196 0 196c0 0 -56 0 -56 0c0 0 0 234 0 234c0 0 -148 0 -148 0c0 0 0 -234 0 -234c0 0 -56 0 -56 0c0 0 0 -196 0 -196c0 -8 3.333 -15.333 10 -22c5.333 -5.333 12.667 -8 22 -8c0 0 196 0 196 0c0 0 0 0 0 0m-98 -330c133.333 0 246.667 46.667 340 140c93.333 93.333 140 206.667 140 340c0 132 -46.667 245 -140 339c-93.333 94 -206.667 141 -340 141c-132 0 -245 -47 -339 -141c-94 -94 -141 -207 -141 -339c0 -133.333 47 -246.667 141 -340c94 -93.333 207 -140 339 -140c0 0 0 0 0 0m0 872c108 0 200.333 -38.333 277 -115c76.667 -76.667 115 -169 115 -277c0 -109.333 -38.333 -202 -115 -278c-76.667 -76 -169 -114 -277 -114c-108 0 -200.333 38 -277 114c-76.667 76 -115 168.667 -115 278c0 108 38.333 200.333 115 277c76.667 76.667 169 115 277 115c0 0 0 0 0 0" />
  </g>
</svg>

<svg height="1000" width="960" xmlns="http://www.w3.org/2000/svg"><path d="M480 324c-44 0-66-22.667-66-68s22-68 66-68c45.333 0 68 22.667 68 68s-22.667 68-68 68m98 26c9.333 0 16.667 2.667 22 8 6.667 6.667 10 14 10 22v196h-56v234H406V576h-56V380c0-8 3.333-15.333 10-22 5.333-5.333 12.667-8 22-8h196M480 20c133.333 0 246.667 46.667 340 140s140 206.667 140 340c0 132-46.667 245-140 339S613.333 980 480 980c-132 0-245-47-339-141S0 632 0 500c0-133.333 47-246.667 141-340S348 20 480 20m0 872c108 0 200.333-38.333 277-115s115-169 115-277c0-109.333-38.333-202-115-278S588 108 480 108s-200.333 38-277 114S88 390.667 88 500c0 108 38.333 200.333 115 277s169 115 277 115"/></svg>
